public/images/dev32.svg

<svg width="100" height="100" viewBox="0 0 100 100" fill="none" xmlns="http://www.w3.org/2000/svg">
<path d="M100 76.4669C99.8381 76.8925 99.5794 77.2745 99.2445 77.5826C98.9096 77.8907 98.5075 78.1166 98.0703 78.2422C96.8748 78.5763 95.606 78.5367 94.4336 78.1288C94.3511 78.1153 94.2767 78.0712 94.2253 78.0052C94.1739 77.9393 94.1492 77.8563 94.1562 77.773C94.1562 77.3115 94.1562 76.8501 94.1562 76.2831C94.9108 76.8593 95.8506 77.1377 96.7969 77.0652C97.0401 77.0562 97.2803 77.0073 97.5078 76.9205C97.6581 76.876 97.7926 76.7895 97.8955 76.6711C97.9985 76.5528 98.0655 76.4075 98.0889 76.2524C98.1123 76.0972 98.091 75.9386 98.0275 75.7952C97.964 75.6517 97.861 75.5293 97.7305 75.4424C97.4951 75.267 97.2306 75.1346 96.9492 75.0514C96.3994 74.8709 95.8662 74.6433 95.3555 74.371C93.793 73.4912 93.7461 71.4969 95.2695 70.578C96.5351 69.8155 97.8984 69.8663 99.2773 70.2495C99.5859 70.3355 99.539 70.5623 99.5351 70.7813C99.5351 71.1372 99.6562 71.6181 99.4766 71.8097C99.2969 72.0013 98.9101 71.6103 98.5937 71.536C97.9488 71.3308 97.2544 71.3431 96.6172 71.5712C96.4549 71.6241 96.3127 71.7256 96.21 71.8621C96.1073 71.9986 96.049 72.1633 96.043 72.3341C96.0371 72.5049 96.0837 72.6733 96.1766 72.8167C96.2696 72.96 96.4043 73.0712 96.5625 73.1353C96.918 73.2996 97.2812 73.4403 97.6484 73.5772C98.7226 73.9682 99.6719 74.5078 99.9922 75.724L100 76.4669Z" fill="#0078D3"/>
<path d="M23.9531 77.1356C23.5709 77.7359 22.9813 78.1743 22.2969 78.3673C20.2617 78.8483 18.7812 77.7847 18.664 75.6301C18.5703 73.9135 18.6406 72.189 18.6289 70.4685C18.6289 70.2261 18.707 70.1596 18.9492 70.1439C20.5117 70.0305 20.4883 70.0266 20.5117 71.5556C20.5117 72.8069 20.5117 74.0621 20.5586 75.3134C20.6055 76.3379 21.125 76.8775 21.9804 76.9557C22.424 77.0078 22.8709 76.8912 23.2327 76.6291C23.5944 76.3669 23.8446 75.9782 23.9336 75.5402C23.9966 75.2684 24.028 74.9902 24.0273 74.7112C24.0273 73.3269 24.0273 71.9427 24.0273 70.5584C24.0273 70.2417 24.1172 70.1674 24.4179 70.1439C25.8945 70.1087 25.8906 70.097 25.8906 71.5673C25.8906 73.6241 25.8906 75.6809 25.8906 77.7378C25.8906 78.1523 25.7969 78.3399 25.3672 78.2578C25.3113 78.2535 25.2551 78.2535 25.1992 78.2578C24.8086 78.2578 24.3867 78.3595 24.1054 78.1953C23.8242 78.031 24.0703 77.554 23.9531 77.1356Z" fill="#0078D3"/>
<path d="M15.0469 71.6181C13.8125 71.6181 12.7031 71.5986 11.5703 71.6181C11.1406 71.6181 11.0312 71.4969 11.039 71.0824C11.039 70.1479 11.039 70.1479 11.9922 70.1479C13.6367 70.1479 15.2812 70.1479 16.9258 70.1479C17.1445 70.1479 17.4726 69.9954 17.5703 70.2847C17.6216 70.4353 17.6339 70.5965 17.6058 70.7532C17.5778 70.9098 17.5105 71.0568 17.4101 71.1802C16.8164 71.9622 16.2383 72.7443 15.6679 73.5264L13.25 76.7954C14.5781 76.7954 15.8008 76.8188 17.0273 76.7954C17.4804 76.7954 17.5898 76.9244 17.5781 77.3585C17.5508 78.2696 17.5781 78.2696 16.6601 78.2696H11.2226C10.6172 78.2696 10.4414 77.9489 10.75 77.4171C10.9023 77.182 11.0666 76.9549 11.2422 76.7367L14.6992 72.1108C14.8008 71.9622 14.8906 71.8371 15.0469 71.6181Z" fill="#0078D3"/>
<path d="M68.4101 76.5647C69.0547 74.6095 69.7148 72.6309 70.3633 70.6445C70.4726 70.3004 70.5976 70.0931 71.0078 70.1518C71.4766 70.2182 72.1055 69.9484 72.3672 70.2808C72.5195 70.4724 72.1211 71.1137 71.9531 71.5477C71.1484 73.6358 70.3359 75.72 69.543 77.8042C69.4219 78.1249 69.2891 78.2696 68.918 78.2656C67.3555 78.2656 67.3555 78.2656 66.8086 76.8032C66.0586 74.7542 65.3125 72.7052 64.5469 70.664C64.3906 70.2456 64.4453 70.1361 64.9141 70.14C66.3945 70.14 66.3945 70.14 66.8437 71.5556L68.4101 76.5647Z" fill="#0078D3"/>
<path d="M29.7734 71.6572C30.2227 70.7852 30.6914 70.1596 31.5937 70.0345C32.4961 69.9093 32.6133 70.0345 32.6133 70.8947C32.6133 70.9495 32.6133 71.0081 32.6133 71.0629C32.6133 71.3053 32.6875 71.626 32.5664 71.7706C32.4453 71.9153 32.1406 71.6885 31.9102 71.669C31.6024 71.6314 31.2902 71.6798 31.0082 71.8088C30.7262 71.9379 30.4854 72.1426 30.3125 72.4002C29.9267 72.9595 29.7334 73.6293 29.7617 74.3084C29.7617 75.4815 29.7422 76.6311 29.7617 77.7886C29.7617 78.1796 29.6406 78.2774 29.2578 78.2774C27.875 78.2774 27.875 78.2774 27.875 76.8775C27.875 74.8168 27.875 72.7599 27.875 70.6992C27.875 70.2417 28.0156 70.1439 28.4414 70.1479C29.7422 70.1674 29.7422 70.1518 29.7734 71.6572Z" fill="#0078D3"/>
<path d="M83.7188 71.7824C83.5117 69.6317 82.6016 67.8721 80.5117 67.09C78.4219 66.3079 76.3242 66.523 74.5938 68.1028C73.0938 69.4714 72.7422 71.3092 72.8672 73.2409C73.0078 75.3877 73.8984 77.1512 75.9727 77.988C78.0469 78.8248 80.1367 78.6645 81.918 77.1395C83.3281 75.9312 83.7227 74.2693 83.7227 72.4901C83.7227 72.2672 83.7422 72.0209 83.7188 71.7824ZM81.6016 74.0621C81.2109 75.6731 80.0977 76.6859 78.5352 76.7993C77.7845 76.8651 77.0344 76.6668 76.414 76.2386C75.7937 75.8103 75.342 75.1789 75.1367 74.4531C74.6713 73.1319 74.7343 71.6817 75.3125 70.4059C75.5922 69.7573 76.0737 69.2165 76.6855 68.8641C77.2972 68.5118 78.0063 68.3668 78.707 68.4508C79.4113 68.5138 80.0752 68.8072 80.5963 69.2857C81.1173 69.7642 81.4665 70.4011 81.5898 71.0981C81.6877 71.6141 81.7439 72.1371 81.7578 72.6622C81.7358 73.1317 81.6836 73.5993 81.6016 74.0621Z" fill="#0078D3"/>
<path d="M55.6953 71.9622C55.5937 69.3775 54.2187 67.6883 51.6953 67.1369C49.957 66.7459 48.1797 66.9844 46.4453 66.9179C46.0547 66.9179 46.1523 67.1721 46.1523 67.3754C46.1523 69.1142 46.1523 70.8543 46.1523 72.5957C46.1523 74.3162 46.1523 76.0368 46.1523 77.7612C46.1523 78.1288 46.207 78.293 46.6289 78.2774C47.6562 78.2461 48.6836 78.2774 49.7109 78.2774C50.9889 78.2827 52.2407 77.9144 53.3125 77.2177C55.1562 75.9429 55.7773 74.1246 55.6953 71.9622ZM53.625 73.5264C53.5119 74.33 53.1295 75.0714 52.5405 75.6291C51.9515 76.1868 51.1907 76.5277 50.3828 76.5959C49.75 76.6702 49.1172 76.6702 48.4844 76.6898C48.125 76.6898 48.0469 76.5647 48.0508 76.2362C48.0508 75.0396 48.0508 73.8431 48.0508 72.6465C48.0508 71.45 48.0508 70.2182 48.0508 69.0021C48.0508 68.658 48.1523 68.5407 48.4961 68.5564C49.332 68.5955 50.1758 68.4977 51.0039 68.6932C51.6822 68.8064 52.3051 69.1379 52.7781 69.6375C53.2512 70.1372 53.5485 70.7776 53.625 71.4617C53.7379 72.1454 53.7366 72.8431 53.6211 73.5264H53.625Z" fill="#0078D3"/>
<path d="M6.96094 68.4664C6.77344 67.9581 6.70312 67.2699 6.33203 67.0079C5.96094 66.7459 5.28906 66.957 4.76953 66.9062C4.35547 66.8671 4.19141 67.0431 4.05469 67.4106C3.29297 69.4987 2.49219 71.5712 1.71094 73.6671C1.14453 75.1843 0.582031 76.7054 0 78.2735C0.59375 78.2735 1.13672 78.25 1.67188 78.2735C1.73404 78.2852 1.79794 78.2844 1.85977 78.271C1.9216 78.2576 1.98012 78.2319 2.03185 78.1954C2.08358 78.1589 2.12747 78.1124 2.16091 78.0587C2.19436 78.0049 2.21668 77.945 2.22656 77.8824C2.44922 77.1708 2.70703 76.4669 2.92578 75.7552C2.94772 75.6298 3.01843 75.5183 3.1224 75.445C3.22638 75.3717 3.35514 75.3426 3.48047 75.3642C4.67578 75.385 5.8724 75.385 7.07031 75.3642C7.19537 75.3447 7.3231 75.3746 7.42658 75.4475C7.53005 75.5205 7.60119 75.6308 7.625 75.7552C7.86328 76.4825 8.13672 77.1981 8.37891 77.9215C8.45312 78.1405 8.53125 78.2735 8.79688 78.2656C9.375 78.2656 9.96875 78.2656 10.5977 78.2656C9.375 74.9341 8.16406 71.7002 6.96094 68.4664ZM3.88672 73.8235C3.49609 73.8235 3.63281 73.6202 3.69922 73.4325L5.07812 69.401C5.125 69.2602 5.17188 69.1194 5.26172 68.8496L6.97656 73.8196C5.89453 73.8196 4.89062 73.8157 3.88281 73.8235H3.88672Z" fill="#0078D3"/>
<path d="M92.9687 72.3806C92.6406 71.1567 91.918 70.2769 90.625 70.0345C90.0213 69.883 89.3859 69.9185 88.8028 70.1364C88.2197 70.3542 87.7163 70.7441 87.3594 71.2545C87.3086 71.3249 87.2734 71.4265 87.1523 71.3874C87.1211 70.1557 87.1211 70.1557 85.8789 70.1596H85.8242C85.3945 70.0814 85.3008 70.2691 85.3047 70.6797C85.3047 74.0112 85.3047 77.3272 85.3047 80.6783C85.3047 82.0078 85.3047 81.9922 86.6523 82.0039C87.043 82.0039 87.1523 81.8944 87.1484 81.5034C87.125 80.0879 87.1484 78.6723 87.1484 77.1317C87.4652 77.5656 87.8732 77.9247 88.3437 78.1835C88.7487 78.3568 89.184 78.4481 89.6244 78.4519C90.0648 78.4558 90.5015 78.3722 90.9095 78.206C91.3174 78.0398 91.6884 77.7944 92.0009 77.4838C92.3135 77.1732 92.5615 76.8036 92.7305 76.3965C93.2741 75.1264 93.3584 73.7063 92.9687 72.3806ZM90.9492 75.7083C90.7891 76.1544 90.4701 76.5256 90.0535 76.7507C89.6368 76.9758 89.1518 77.0391 88.6914 76.9283C88.2491 76.8262 87.8541 76.5776 87.5706 76.2227C87.287 75.8679 87.1314 75.4276 87.1289 74.9732C87.1289 74.7503 87.1289 74.5235 87.1289 74.1911C87.076 73.6239 87.1801 73.053 87.4297 72.541C87.6144 72.1712 87.9075 71.8667 88.2698 71.6682C88.6321 71.4697 89.0463 71.3868 89.457 71.4304C89.8703 71.4721 90.2588 71.6473 90.564 71.9294C90.8691 72.2116 91.0742 72.5854 91.1484 72.9946C91.3754 73.8983 91.2999 74.8516 90.9336 75.7083H90.9492Z" fill="#0078D3"/>
<path d="M58.9844 74.7268C60.2735 74.7268 61.5625 74.7268 62.8516 74.7268C64.1406 74.7268 64.1289 74.7268 64.0625 73.4521C63.9688 71.6611 62.9922 70.3551 61.5156 70.054C60.6925 69.8455 59.8234 69.9172 59.0454 70.2577C58.2674 70.5983 57.6248 71.1883 57.2188 71.9349C56.3164 73.5811 56.5508 76.1541 57.7149 77.3624C58.8789 78.5707 61.8321 78.8678 63.2578 77.8629C63.3217 77.8263 63.3739 77.7723 63.4084 77.7073C63.443 77.6423 63.4585 77.5688 63.4531 77.4953C63.4531 77.1238 63.4531 76.7563 63.4531 76.2675C62.9004 76.6091 62.2923 76.8512 61.6563 76.9831C60.0703 77.2529 58.875 76.5334 58.6055 75.1687C58.5586 74.8246 58.6406 74.719 58.9844 74.7268ZM60.8711 71.3757C61.2761 71.4614 61.6384 71.6861 61.8952 72.0111C62.152 72.336 62.2872 72.7407 62.2774 73.1549C62.2774 73.3973 62.1485 73.4208 61.9571 73.4208C61.4336 73.4208 60.9102 73.4208 60.3946 73.4208H58.8828C58.7383 73.4208 58.5586 73.4521 58.6094 73.2018C58.8555 72.0053 59.7656 71.1802 60.8906 71.3718L60.8711 71.3757Z" fill="#0078D3"/>
<path d="M35.4141 74.7229C36.6484 74.7503 37.8789 74.7229 39.1133 74.7229C40.5039 74.7229 40.5039 74.7229 40.4024 73.3113C40.2891 71.7237 39.4531 70.5428 38.1602 70.1244C37.4378 69.8845 36.6605 69.8654 35.9272 70.0694C35.194 70.2735 34.538 70.6914 34.043 71.2701C32.7891 72.7599 32.6719 75.4541 33.8008 77.0417C34.1847 77.6014 34.7464 78.0148 35.3945 78.2148C36.7311 78.6148 38.167 78.5176 39.4375 77.9411C39.6094 77.8668 39.7891 77.8003 39.7891 77.5501C39.7891 77.159 39.7891 76.7445 39.7891 76.2245C39.2551 76.5985 38.6458 76.8508 38.0039 76.9635C36.4766 77.2294 35.2969 76.549 34.9844 75.2547C34.8867 74.8637 34.9492 74.6994 35.4141 74.7229ZM34.9766 73.1353C35.0423 72.68 35.2563 72.2592 35.5855 71.9381C35.9146 71.6171 36.3405 71.4139 36.7969 71.36C37.0393 71.3466 37.2819 71.3843 37.5088 71.4708C37.7357 71.5573 37.9418 71.6906 38.1139 71.8621C38.286 72.0336 38.42 72.2394 38.5074 72.4662C38.5948 72.693 38.6335 72.9356 38.6211 73.1783C38.6016 73.4364 38.4649 73.4286 38.293 73.4286H36.7813C36.2578 73.4286 35.7383 73.4286 35.2188 73.4286C35 73.4208 34.9375 73.3621 34.9766 73.1353Z" fill="#0078D3"/>
<path d="M61.4883 27.7562C64.7031 27.1579 67.9219 26.5831 71.125 25.9497C71.8594 25.805 71.8203 26.153 71.8164 26.6535C71.8164 33.1133 71.8164 39.5719 71.8164 46.0291C71.8164 48.0429 71.8164 50.0528 71.8164 52.0666C71.8398 52.3175 71.7981 52.5703 71.6955 52.8004C71.5929 53.0306 71.4327 53.2303 71.2305 53.3805C68.0899 55.9378 64.9649 58.5186 61.8555 61.1229C61.6541 61.3224 61.3976 61.457 61.1191 61.5093C60.8406 61.5616 60.5529 61.5291 60.293 61.4161C55.4688 59.7582 50.5742 58.1471 45.7031 56.5204C45.4024 56.4227 45.1016 56.3288 44.7383 56.2154V61.4044C44.4883 61.5335 44.4024 61.3731 44.3047 61.2558L33.0664 47.9608C32.99 47.8575 32.9208 47.7491 32.8594 47.6362C32.8237 47.588 32.8087 47.5275 32.8174 47.4682C32.8262 47.4088 32.8582 47.3553 32.9063 47.3195C33.3594 47.0379 33.8438 47.1357 34.3242 47.2061C42.6992 48.3792 51.0703 49.5523 59.4492 50.7254C59.7076 50.7694 59.9686 50.7969 60.2305 50.8075C60.303 50.8172 60.3768 50.8109 60.4466 50.7892C60.5165 50.7675 60.5808 50.7308 60.6351 50.6817C60.6894 50.6325 60.7323 50.5722 60.7609 50.5048C60.7895 50.4374 60.8031 50.3645 60.8008 50.2913C60.8281 49.9668 60.8203 49.6422 60.8203 49.3177C60.8203 42.7666 60.8203 36.2142 60.8203 29.6605C60.7728 29.1365 60.8111 28.6082 60.9336 28.0964C61.0117 27.8383 61.2774 27.8422 61.4883 27.7562Z" fill="#0078D3"/>
<path d="M32.5938 46.4357C32.5938 42.3456 32.5938 38.2554 32.5938 34.1652C32.5938 33.4809 32.7734 33.2385 33.4688 33.1094C42.5039 31.4123 51.5273 29.6723 60.5586 27.9517C60.7503 27.9274 60.9434 27.9156 61.1367 27.9165L61.5273 27.7562C61.082 27.8305 60.8125 27.5138 60.5078 27.2909C56.5104 24.3738 52.513 21.4541 48.5156 18.5318C48.1797 18.3128 47.9375 17.9531 47.4883 18C47.4883 19.1731 47.4609 20.3462 47.5234 21.5193C47.5625 22.2114 47.3242 22.5281 46.6758 22.7784C42.2383 24.4794 37.8203 26.2312 33.3945 27.9439C32.786 28.1611 32.2557 28.5544 31.8711 29.074C30.6562 30.7124 29.4102 32.3274 28.1797 33.954C28.1797 37.8018 28.1888 41.6495 28.207 45.4973C28.207 45.8883 28.1094 46.2793 28.4219 46.6C29.4023 46.7799 30.375 46.9402 31.3594 47.1435C31.875 47.253 32.4727 47.167 32.8594 47.6636L32.8789 47.4172C32.4961 47.1631 32.5938 46.7799 32.5938 46.4357Z" fill="#0078D3"/>
</svg>

<svg xmlns="http://www.w3.org/2000/svg" width="100" height="100" fill="none"><path fill="#0078D3" d="M100 76.467a2.93 2.93 0 0 1-1.93 1.775 6.1 6.1 0 0 1-3.636-.113.33.33 0 0 1-.278-.356v-1.49a3.87 3.87 0 0 0 2.64.782q.368-.014.712-.144a.823.823 0 0 0 .52-1.126.83.83 0 0 0-.297-.353 2.5 2.5 0 0 0-.782-.39 10 10 0 0 1-1.593-.681c-1.563-.88-1.61-2.874-.087-3.793 1.266-.763 2.63-.712 4.008-.329.309.087.262.313.258.532 0 .356.121.837-.058 1.029-.18.191-.567-.2-.883-.274a3.1 3.1 0 0 0-1.977.035.832.832 0 0 0-.055 1.564c.356.165.72.305 1.086.442 1.075.391 2.024.93 2.344 2.147zM23.953 77.136a2.9 2.9 0 0 1-1.656 1.231c-2.035.481-3.516-.582-3.633-2.737-.094-1.716-.023-3.441-.035-5.161 0-.243.078-.31.32-.325 1.563-.114 1.54-.117 1.563 1.412 0 1.25 0 2.506.047 3.757.046 1.025.566 1.564 1.421 1.643a1.78 1.78 0 0 0 1.954-1.416q.094-.41.093-.829v-4.153c0-.316.09-.39.39-.414 1.477-.035 1.474-.047 1.474 1.423v6.17c0 .415-.094.603-.524.52a1 1 0 0 0-.168 0c-.39 0-.812.102-1.094-.062-.28-.164-.035-.641-.152-1.06M15.047 71.618c-1.235 0-2.344-.02-3.477 0-.43 0-.539-.121-.531-.536 0-.934 0-.934.953-.934h4.934c.219 0 .547-.153.644.137a.94.94 0 0 1-.16.895c-.594.782-1.172 1.564-1.742 2.346l-2.418 3.27c1.328 0 2.55.023 3.777 0 .453 0 .563.128.551.563-.027.91 0 .91-.918.91h-5.437c-.606 0-.782-.32-.473-.852q.229-.353.492-.68L14.7 72.11c.102-.149.192-.274.348-.493M68.41 76.565c.645-1.956 1.305-3.934 1.953-5.92.11-.345.235-.552.645-.493.469.066 1.098-.204 1.36.129.151.191-.247.833-.415 1.267-.805 2.088-1.617 4.172-2.41 6.256-.121.32-.254.466-.625.462-1.562 0-1.562 0-2.11-1.463-.75-2.049-1.496-4.098-2.261-6.139-.156-.418-.102-.528.367-.524 1.48 0 1.48 0 1.93 1.416zM29.773 71.657c.45-.872.918-1.497 1.82-1.623.903-.125 1.02 0 1.02.86v.169c0 .242.075.563-.047.708-.12.144-.425-.082-.656-.102a1.68 1.68 0 0 0-1.598.731c-.385.56-.579 1.23-.55 1.908 0 1.173-.02 2.323 0 3.48 0 .392-.121.49-.504.49-1.383 0-1.383 0-1.383-1.4v-6.179c0-.457.14-.555.566-.551 1.301.02 1.301.004 1.332 1.51M83.719 71.782c-.207-2.15-1.117-3.91-3.207-4.692s-4.188-.567-5.918 1.013c-1.5 1.368-1.852 3.206-1.727 5.138.14 2.147 1.031 3.91 3.106 4.747 2.074.837 4.164.677 5.945-.849 1.41-1.208 1.805-2.87 1.805-4.649 0-.223.02-.47-.004-.708m-2.117 2.28c-.391 1.611-1.504 2.624-3.067 2.737a3.24 3.24 0 0 1-3.398-2.346 5.43 5.43 0 0 1 .175-4.047 3.28 3.28 0 0 1 3.395-1.955 3.22 3.22 0 0 1 2.883 2.647q.147.776.168 1.564-.033.705-.156 1.4M55.695 71.962c-.101-2.585-1.476-4.274-4-4.825-1.738-.391-3.515-.153-5.25-.22-.39 0-.293.255-.293.458v10.386c0 .368.055.532.477.516 1.027-.03 2.055 0 3.082 0a6.56 6.56 0 0 0 3.602-1.06c1.843-1.274 2.464-3.092 2.382-5.255m-2.07 1.564a3.584 3.584 0 0 1-3.242 3.07c-.633.074-1.266.074-1.899.094-.359 0-.437-.125-.433-.454v-7.234c0-.344.101-.461.445-.446.836.04 1.68-.058 2.508.137a3.16 3.16 0 0 1 2.621 2.769 6.3 6.3 0 0 1-.004 2.064z"/><path fill="#0078D3" d="M6.96 68.466c-.187-.508-.257-1.196-.628-1.458s-1.043-.051-1.562-.102c-.415-.039-.579.137-.715.505-.762 2.088-1.563 4.16-2.344 6.256C1.145 75.184.582 76.705 0 78.273c.594 0 1.137-.023 1.672 0a.474.474 0 0 0 .555-.39c.222-.712.48-1.416.699-2.128a.48.48 0 0 1 .554-.39q1.794.03 3.59 0a.49.49 0 0 1 .555.39c.238.728.512 1.443.754 2.166.074.22.152.352.418.345h1.8c-1.222-3.332-2.433-6.566-3.636-9.8m-3.073 5.358c-.39 0-.254-.204-.188-.391L5.08 69.4l.183-.551 1.715 4.97c-1.082 0-2.086-.004-3.094.004zM92.969 72.38c-.328-1.223-1.051-2.103-2.344-2.346a3.07 3.07 0 0 0-3.266 1.22c-.05.07-.086.172-.207.133-.03-1.231-.03-1.231-1.273-1.227h-.055c-.43-.079-.523.11-.52.52v9.998c0 1.33 0 1.314 1.348 1.326.391 0 .5-.11.496-.5-.023-1.416 0-2.832 0-4.372a3.7 3.7 0 0 0 1.196 1.051 3.33 3.33 0 0 0 4.387-1.787c.543-1.27.627-2.69.238-4.015m-2.02 3.328a1.923 1.923 0 0 1-2.258 1.22 2.014 2.014 0 0 1-1.562-1.955v-.782a3.1 3.1 0 0 1 .3-1.65 2.03 2.03 0 0 1 2.028-1.11 1.914 1.914 0 0 1 1.691 1.564 4.26 4.26 0 0 1-.214 2.713zM58.984 74.727h3.868c1.289 0 1.277 0 1.21-1.275-.093-1.79-1.07-3.097-2.546-3.398a3.82 3.82 0 0 0-4.297 1.88c-.903 1.647-.668 4.22.496 5.428s4.117 1.506 5.543.5a.39.39 0 0 0 .195-.367v-1.228a5.6 5.6 0 0 1-1.797.716c-1.586.27-2.781-.45-3.05-1.814-.047-.344.035-.45.378-.442m1.887-3.351a1.77 1.77 0 0 1 1.406 1.779c0 .242-.129.266-.32.266h-3.074c-.145 0-.324.031-.274-.22.246-1.196 1.157-2.02 2.282-1.83zM35.414 74.723c1.234.027 2.465 0 3.7 0 1.39 0 1.39 0 1.288-1.412-.113-1.587-.949-2.768-2.242-3.187a3.83 3.83 0 0 0-4.117 1.146c-1.254 1.49-1.371 4.184-.242 5.772.384.56.945.973 1.593 1.173 1.337.4 2.773.303 4.044-.274.171-.074.351-.14.351-.39v-1.326a4.46 4.46 0 0 1-1.785.739c-1.527.265-2.707-.415-3.02-1.71-.097-.39-.035-.555.43-.531m-.437-1.588a2.09 2.09 0 0 1 1.82-1.775 1.73 1.73 0 0 1 1.824 1.818c-.02.258-.156.25-.328.25h-3.074c-.219-.007-.282-.066-.242-.293M61.488 27.756c3.215-.598 6.434-1.173 9.637-1.806.734-.145.695.203.691.704v25.413a1.47 1.47 0 0 1-.585 1.313 878 878 0 0 0-9.375 7.743 1.42 1.42 0 0 1-1.563.293c-4.824-1.658-9.719-3.269-14.59-4.896-.3-.097-.601-.191-.965-.305v5.19c-.25.128-.336-.032-.433-.15L33.066 47.962a3 3 0 0 1-.207-.325.227.227 0 0 1 .047-.317c.453-.281.938-.183 1.418-.113l25.125 3.52q.389.065.782.081a.503.503 0 0 0 .57-.516c.027-.324.02-.649.02-.973V29.66a4.8 4.8 0 0 1 .113-1.565c.078-.258.343-.254.554-.34"/><path fill="#0078D3" d="M32.594 46.436v-12.27c0-.685.18-.927.875-1.057 9.035-1.697 18.058-3.437 27.09-5.157q.287-.037.578-.036l.39-.16c-.445.075-.715-.242-1.02-.465q-5.996-4.376-11.991-8.76c-.336-.218-.578-.578-1.028-.531 0 1.173-.027 2.346.035 3.52.04.691-.199 1.008-.847 1.258-4.438 1.701-8.856 3.453-13.282 5.166a3.26 3.26 0 0 0-1.523 1.13c-1.215 1.638-2.46 3.253-3.691 4.88q0 5.772.027 11.543c0 .391-.098.782.215 1.103.98.18 1.953.34 2.937.544.516.109 1.114.023 1.5.52l.02-.247c-.383-.254-.285-.637-.285-.981"/></svg>
